!! 00000] TT[WS
!!!OTL: Fang fengzheng
!!!ARE: Asia, China,ÿShanxi Dingxiang
!! Ethnic Group: Han
!! WI, 218
!!!SCT: J0259
!!!YEM: Copyright 1995, estate of Helmut Schaffrath.
**kern
*ICvox
*Ivox
*M2/4
*k[]
*C:
{8cc
16cc
16e
4g
=1
8cc
16ee
16dd
4cc
=2
16cc
16a
8ee
16ee
16a
8dd
=3
8cc
16cc
16e
4g}
=4
{16ee
8c
16dd
8ee
16ee
16dd
=5
16cc
16a
16cc
16e
8.g
16a
=6
16dd
16dd
16cc
16ee
16dd
16cc
16cc
16g
=7
16g
16f
16e
16d
4c}
=8
{16g
16g
16d
16e
8.g
16a
=9
16dd
16dd
16cc
16ee
16dd
16cc
16cc
16g
=10
16g
16f
16e
16d
4c}
==
!!!AGN: Xiaodiao. Qingge, Sichun
!!!ONB: ESAC (Essen Associative Code) Database: CHINA
!!!AMT: simple duple
!!!AIN: vox
!!!EED: Helmut Schaffrath
!!!EEV: 1.0
*-
